; G-Code generated by Simplify3D(R) Version 4.1.1
; Sep 18, 2020 at 11:10:20 PM
; Settings Summary
;   processName,Process1
;   applyToModels,gopro 20deg
;   profileName,Default (modified)
;   profileVersion,2015-08-14 23:46:21
;   baseProfile,
;   printMaterial,
;   printQuality,
;   printExtruders,
;   extruderName,Primary Extruder
;   extruderToolheadNumber,0
;   extruderDiameter,0.4
;   extruderAutoWidth,0
;   extruderWidth,0.42
;   extrusionMultiplier,1.02
;   extruderUseRetract,1
;   extruderRetractionDistance,0.8
;   extruderExtraRestartDistance,0
;   extruderRetractionZLift,0
;   extruderRetractionSpeed,1800
;   extruderUseCoasting,1
;   extruderCoastingDistance,0.2
;   extruderUseWipe,1
;   extruderWipeDistance,2
;   primaryExtruder,0
;   layerHeight,0.25
;   topSolidLayers,3
;   bottomSolidLayers,3
;   perimeterOutlines,2
;   printPerimetersInsideOut,1
;   startPointOption,3
;   startPointOriginX,0
;   startPointOriginY,0
;   sequentialIslands,0
;   spiralVaseMode,0
;   firstLayerHeightPercentage,90
;   firstLayerWidthPercentage,103
;   firstLayerUnderspeed,0.5
;   useRaft,0
;   raftExtruder,0
;   raftTopLayers,3
;   raftBaseLayers,2
;   raftOffset,3
;   raftSeparationDistance,0.14
;   raftTopInfill,100
;   aboveRaftSpeedMultiplier,0.3
;   useSkirt,1
;   skirtExtruder,0
;   skirtLayers,1
;   skirtOutlines,6
;   skirtOffset,2
;   usePrimePillar,0
;   primePillarExtruder,999
;   primePillarWidth,12
;   primePillarLocation,7
;   primePillarSpeedMultiplier,1
;   useOozeShield,0
;   oozeShieldExtruder,999
;   oozeShieldOffset,2
;   oozeShieldOutlines,1
;   oozeShieldSidewallShape,1
;   oozeShieldSidewallAngle,30
;   oozeShieldSpeedMultiplier,1
;   infillExtruder,0
;   internalInfillPattern,Rectilinear
;   externalInfillPattern,Rectilinear
;   infillPercentage,30
;   outlineOverlapPercentage,15
;   infillExtrusionWidthPercentage,100
;   minInfillLength,5
;   infillLayerInterval,1
;   internalInfillAngles,45,-45
;   overlapInternalInfillAngles,0
;   externalInfillAngles,45,-45
;   generateSupport,1
;   supportExtruder,0
;   supportInfillPercentage,30
;   supportExtraInflation,0
;   supportBaseLayers,0
;   denseSupportExtruder,0
;   denseSupportLayers,0
;   denseSupportInfillPercentage,70
;   supportLayerInterval,1
;   supportHorizontalPartOffset,0.3
;   supportUpperSeparationLayers,1
;   supportLowerSeparationLayers,1
;   supportType,0
;   supportGridSpacing,4
;   maxOverhangAngle,25
;   supportAngles,0
;   temperatureName,Primary Extruder,Heated Bed
;   temperatureNumber,0,1
;   temperatureSetpointCount,1,1
;   temperatureSetpointLayers,1,1
;   temperatureSetpointTemperatures,225,60
;   temperatureStabilizeAtStartup,1,1
;   temperatureHeatedBed,0,1
;   fanLayers,1
;   fanSpeeds,0
;   blipFanToFullPower,1
;   adjustSpeedForCooling,1
;   minSpeedLayerTime,15
;   minCoolingSpeedSlowdown,20
;   increaseFanForCooling,0
;   minFanLayerTime,45
;   maxCoolingFanSpeed,100
;   increaseFanForBridging,0
;   bridgingFanSpeed,100
;   use5D,1
;   relativeEdistances,0
;   allowEaxisZeroing,1
;   independentExtruderAxes,0
;   includeM10123,0
;   stickySupport,1
;   applyToolheadOffsets,0
;   gcodeXoffset,0
;   gcodeYoffset,0
;   gcodeZoffset,0
;   overrideMachineDefinition,1
;   machineTypeOverride,0
;   strokeXoverride,195
;   strokeYoverride,195
;   strokeZoverride,150
;   originOffsetXoverride,0
;   originOffsetYoverride,0
;   originOffsetZoverride,0
;   homeXdirOverride,-1
;   homeYdirOverride,-1
;   homeZdirOverride,-1
;   flipXoverride,1
;   flipYoverride,-1
;   flipZoverride,1
;   toolheadOffsets,0,0|0,0|0,0|0,0|0,0|0,0
;   overrideFirmwareConfiguration,1
;   firmwareTypeOverride,RepRap (Marlin/Repetier/Sprinter)
;   GPXconfigOverride,r2
;   baudRateOverride,115200
;   overridePrinterModels,0
;   printerModelsOverride
;   startingGcode,G28,
;   layerChangeGcode,
;   retractionGcode,
;   toolChangeGcode,
;   endingGcode,M104 S0 ; turn off extruder,M140 S0 ; turn off bed,G28 X0 ; home X axis,M84 ; disable motors,M107 ; turn off fan
;   exportFileFormat,gcode
;   celebration,0
;   celebrationSong,Random Song
;   postProcessing,
;   defaultSpeed,3000
;   outlineUnderspeed,0.7
;   solidInfillUnderspeed,0.8
;   supportUnderspeed,0.8
;   rapidXYspeed,7800
;   rapidZspeed,1002
;   minBridgingArea,5
;   bridgingExtraInflation,0
;   bridgingExtrusionMultiplier,1
;   bridgingSpeedMultiplier,0.3
;   useFixedBridgingAngle,0
;   fixedBridgingAngle,0
;   applyBridgingToPerimeters,0
;   filamentDiameters,1.75|1.75|1.75|1.75|1.75|1.75
;   filamentPricesPerKg,1000|1000|1000|1000|1000|1000
;   filamentDensities,1.25|1.25|1.25|1.25|1.25|1.25
;   useMinPrintHeight,0
;   minPrintHeight,196
;   useMaxPrintHeight,0
;   maxPrintHeight,392
;   useDiaphragm,0
;   diaphragmLayerInterval,20
;   robustSlicing,1
;   mergeAllIntoSolid,0
;   onlyRetractWhenCrossingOutline,0
;   retractBetweenLayers,0
;   useRetractionMinTravel,0
;   retractionMinTravel,3
;   retractWhileWiping,0
;   onlyWipeOutlines,1
;   avoidCrossingOutline,1
;   maxMovementDetourFactor,3
;   toolChangeRetractionDistance,0
;   toolChangeExtraRestartDistance,0
;   toolChangeRetractionSpeed,360
;   externalThinWallType,0
;   internalThinWallType,2
;   thinWallAllowedOverlapPercentage,10
;   singleExtrusionMinLength,1
;   singleExtrusionMinPrintingWidthPercentage,50
;   singleExtrusionMaxPrintingWidthPercentage,200
;   singleExtrusionEndpointExtension,0.2
;   horizontalSizeCompensation,0
G90
M82
M106 S0
M140 S60
M190 S60
M104 S225 T0
M109 S225 T0
G28
; process Process1
; layer 1, Z = 0.225
T0
G92 E0.0000
G1 E-0.8000 F1800
; feature skirt
; tool H0.225 W0.433
G1 Z0.225 F1002
G1 X94.774 Y85.414 F7800
G1 E0.0000 F1800
G92 E0.0000
G1 X95.025 Y85.148 E0.0151 F1500
G1 X95.466 Y84.753 E0.0395
G1 X95.760 Y84.531 E0.0548
G1 X96.504 Y84.062 E0.0910
G1 X96.947 Y83.848 E0.1113
G1 X97.777 Y83.556 E0.1477
G1 X98.138 Y83.463 E0.1630
G1 X98.729 Y83.363 E0.1878
G1 X99.094 Y83.332 E0.2029
G1 X121.315 Y83.323 E1.1201
G1 X121.315 Y82.357 E1.1600
G1 X123.881 Y79.792 E1.3097
G1 X125.315 Y79.792 E1.3689
G1 X125.315 Y66.357 E1.9235
G1 X127.881 Y63.792 E2.0732
G1 X135.949 Y63.792 E2.4062
G1 X138.514 Y66.357 E2.5560
G1 X138.514 Y71.792 E2.7803
G1 X139.949 Y71.792 E2.8395
G1 X142.514 Y74.357 E2.9893
G1 X142.514 Y83.792 E3.3787
G1 X143.949 Y83.792 E3.4379
G1 X146.514 Y86.358 E3.5877
G1 X146.514 Y91.792 E3.8120
G1 X147.949 Y91.792 E3.8712
G1 X150.514 Y94.358 E4.0210
G1 X150.514 Y103.792 E4.4104
G1 X151.949 Y103.792 E4.4696
G1 X154.514 Y106.358 E4.6194
G1 X154.514 Y118.425 E5.1175
G1 X151.949 Y120.991 E5.2672
G1 X143.881 Y120.991 E5.6002
G1 X143.697 Y120.807 E5.6110
G1 X143.703 Y128.732 E5.9381
G1 X143.684 Y129.021 E5.9500
G1 X143.580 Y129.811 E5.9829
G1 X143.515 Y130.124 E5.9961
G1 X143.334 Y130.761 E6.0235
G1 X143.155 Y131.201 E6.0431
G1 X142.718 Y132.012 E6.0811
G1 X142.438 Y132.417 E6.1014
G1 X141.884 Y133.050 E6.1361
G1 X141.465 Y133.420 E6.1592
G1 X140.564 Y134.033 E6.2042
G1 X139.926 Y134.332 E6.2333
G1 X138.867 Y134.632 E6.2787
G1 X138.281 Y134.715 E6.3032
G1 X136.277 Y134.727 E6.3859
G1 X135.977 Y134.709 E6.3983
G1 X135.748 Y134.679 E6.4078
G1 X134.240 Y134.679 E6.4700
G1 X133.916 Y134.654 E6.4835
G1 X133.205 Y134.548 E6.5131
G1 X132.719 Y134.417 E6.5339
G1 X132.071 Y134.159 E6.5627
G1 X131.623 Y133.919 E6.5837
G1 X130.870 Y133.392 E6.6216
G1 X130.335 Y132.862 E6.6527
G1 X130.205 Y132.679 E6.6620
G1 X106.597 Y132.679 E7.6364
G1 X106.514 Y132.786 E7.6420
G1 X106.514 Y138.425 E7.8748
G1 X103.949 Y140.991 E8.0246
G1 X95.881 Y140.991 E8.3576
G1 X93.315 Y138.425 E8.5073
G1 X93.315 Y130.357 E8.8403
G1 X93.395 Y130.278 E8.8450
G1 X93.349 Y130.110 E8.8522
G1 X93.192 Y129.303 E8.8861
G1 X93.156 Y129.011 E8.8982
G1 X93.124 Y128.464 E8.9208
G1 X93.121 Y128.339 E8.9260
G1 X93.121 Y89.635 E10.5236
G1 X93.124 Y89.510 E10.5288
G1 X93.151 Y89.039 E10.5482
G1 X93.203 Y88.674 E10.5634
G1 X93.400 Y87.817 E10.5997
G1 X93.563 Y87.353 E10.6200
G1 X93.971 Y86.508 E10.6588
G1 X94.232 Y86.094 E10.6790
G1 X94.774 Y85.414 E10.7149
G92 E0.0000
G1 E-0.8000 F1800
G1 X95.101 Y85.698 F7800
G1 E0.0000 F1800
G92 E0.0000
G1 X95.327 Y85.458 E0.0136 F1500
G1 X95.741 Y85.087 E0.0365
G1 X96.006 Y84.887 E0.0503
G1 X96.714 Y84.441 E0.0848
G1 X97.113 Y84.248 E0.1031
G1 X97.903 Y83.971 E0.1376
G1 X98.228 Y83.887 E0.1515
G1 X98.783 Y83.793 E0.1747
G1 X99.112 Y83.765 E0.1884
G1 X121.748 Y83.755 E1.1227
G1 X121.748 Y82.537 E1.1730
G1 X124.060 Y80.225 E1.3079
G1 X125.748 Y80.225 E1.3776
G1 X125.748 Y74.537 E1.6124
G1 X125.893 Y74.391 E1.6209
G1 X125.748 Y74.246 E1.6294
G1 X125.748 Y66.537 E1.9476
G1 X128.060 Y64.225 E2.0825
G1 X135.770 Y64.225 E2.4008
G1 X138.081 Y66.537 E2.5357
G1 X138.081 Y72.225 E2.7705
G1 X139.770 Y72.225 E2.8402
G1 X142.081 Y74.537 E2.9751
G1 X142.081 Y84.225 E3.3750
G1 X143.770 Y84.225 E3.4447
G1 X146.081 Y86.537 E3.5797
G1 X146.081 Y92.225 E3.8144
G1 X147.770 Y92.225 E3.8841
G1 X150.081 Y94.537 E4.0191
G1 X150.081 Y104.225 E4.4190
G1 X151.770 Y104.225 E4.4886
G1 X154.081 Y106.537 E4.6236
G1 X154.081 Y118.246 E5.1069
G1 X151.770 Y120.558 E5.2419
G1 X144.060 Y120.558 E5.5601
G1 X143.264 Y119.762 E5.6066
G1 X143.270 Y128.718 E5.9763
G1 X143.253 Y128.978 E5.9870
G1 X143.153 Y129.739 E6.0187
G1 X143.095 Y130.021 E6.0306
G1 X142.924 Y130.620 E6.0563
G1 X142.763 Y131.016 E6.0740
G1 X142.349 Y131.785 E6.1100
G1 X142.096 Y132.150 E6.1283
G1 X141.576 Y132.744 E6.1609
G1 X141.199 Y133.078 E6.1817
G1 X140.350 Y133.656 E6.2241
G1 X139.774 Y133.925 E6.2503
G1 X138.777 Y134.207 E6.2931
G1 X138.249 Y134.283 E6.3151
G1 X136.289 Y134.295 E6.3960
G1 X136.019 Y134.278 E6.4072
G1 X135.777 Y134.246 E6.4173
G1 X134.256 Y134.246 E6.4801
G1 X133.964 Y134.224 E6.4922
G1 X133.294 Y134.124 E6.5201
G1 X132.856 Y134.006 E6.5388
G1 X132.254 Y133.767 E6.5656
G1 X131.850 Y133.550 E6.5845
G1 X131.148 Y133.059 E6.6199
G1 X130.666 Y132.581 E6.6479
G1 X130.428 Y132.246 E6.6648
G1 X106.385 Y132.246 E7.6572
G1 X106.100 Y132.614 E7.6765
G1 X106.081 Y132.632 E7.6775
G1 X106.081 Y138.246 E7.9093
G1 X103.770 Y140.558 E8.0442
G1 X96.060 Y140.558 E8.3624
G1 X93.748 Y138.246 E8.4974
G1 X93.748 Y130.537 E8.8156
G1 X93.885 Y130.400 E8.8236
G1 X93.847 Y130.292 E8.8283
G1 X93.771 Y130.012 E8.8403
G1 X93.620 Y129.234 E8.8730
G1 X93.587 Y128.971 E8.8839
G1 X93.557 Y128.446 E8.9057
G1 X93.553 Y128.332 E8.9103
G1 X93.553 Y89.641 E10.5074
G1 X93.557 Y89.528 E10.5121
G1 X93.582 Y89.082 E10.5305
G1 X93.629 Y88.753 E10.5442
G1 X93.816 Y87.938 E10.5787
G1 X93.963 Y87.520 E10.5970
G1 X94.350 Y86.718 E10.6338
G1 X94.585 Y86.345 E10.6520
G1 X95.101 Y85.698 E10.6862
G92 E0.0000
G1 E-0.8000 F1800
G1 X95.428 Y85.981 F7800
G1 E0.0000 F1800
G92 E0.0000
G1 X95.629 Y85.768 E0.0121 F1500
G1 X96.016 Y85.421 E0.0335
G1 X96.252 Y85.243 E0.0458
G1 X96.924 Y84.820 E0.0785
G1 X97.279 Y84.648 E0.0948
G1 X98.029 Y84.385 E0.1276
G1 X98.319 Y84.310 E0.1400
G1 X98.838 Y84.222 E0.1617
G1 X99.131 Y84.198 E0.1738
G1 X122.181 Y84.188 E1.1253
G1 X122.181 Y82.716 E1.1860
G1 X124.239 Y80.657 E1.3062
G1 X126.181 Y80.657 E1.3863
G1 X126.181 Y74.716 E1.6315
G1 X126.505 Y74.391 E1.6505
G1 X126.181 Y74.067 E1.6694
G1 X126.181 Y66.716 E1.9728
G1 X128.239 Y64.657 E2.0930
G1 X135.590 Y64.657 E2.3964
G1 X137.649 Y66.716 E2.5166
G1 X137.649 Y72.657 E2.7618
G1 X139.590 Y72.657 E2.8420
G1 X141.649 Y74.716 E2.9622
G1 X141.649 Y84.657 E3.3725
G1 X143.590 Y84.657 E3.4526
G1 X145.649 Y86.716 E3.5728
G1 X145.649 Y92.657 E3.8180
G1 X147.590 Y92.657 E3.8982
G1 X149.649 Y94.716 E4.0183
G1 X149.649 Y104.657 E4.4287
G1 X151.590 Y104.657 E4.5088
G1 X153.649 Y106.716 E4.6290
G1 X153.649 Y118.067 E5.0975
G1 X151.590 Y120.126 E5.2177
G1 X144.239 Y120.126 E5.5211
G1 X142.830 Y118.717 E5.6034
G1 X142.838 Y128.704 E6.0156
G1 X142.823 Y128.936 E6.0252
G1 X142.726 Y129.666 E6.0556
G1 X142.674 Y129.918 E6.0662
G1 X142.514 Y130.479 E6.0903
G1 X142.371 Y130.832 E6.1060
G1 X141.980 Y131.559 E6.1401
G1 X141.754 Y131.884 E6.1564
G1 X141.269 Y132.439 E6.1869
G1 X140.933 Y132.736 E6.2054
G1 X140.135 Y133.279 E6.2452
G1 X139.623 Y133.518 E6.2686
G1 X138.687 Y133.783 E6.3087
G1 X138.217 Y133.850 E6.3283
G1 X136.301 Y133.862 E6.4074
G1 X136.061 Y133.847 E6.4173
G1 X135.805 Y133.813 E6.4280
G1 X134.272 Y133.813 E6.4912
G1 X134.012 Y133.794 E6.5020
G1 X133.383 Y133.700 E6.5283
G1 X132.993 Y133.595 E6.5450
G1 X132.437 Y133.374 E6.5696
G1 X132.078 Y133.181 E6.5865
G1 X131.426 Y132.726 E6.6193
G1 X130.997 Y132.300 E6.6442
G1 X130.652 Y131.813 E6.6688
G1 X106.173 Y131.813 E7.6792
G1 X105.775 Y132.327 E7.7061
G1 X105.649 Y132.453 E7.7134
G1 X105.649 Y138.067 E7.9451
G1 X103.590 Y140.126 E8.0653
G1 X96.239 Y140.126 E8.3687
G1 X94.181 Y138.067 E8.4889
G1 X94.181 Y130.716 E8.7923
G1 X94.383 Y130.513 E8.8041
G1 X94.260 Y130.164 E8.8195
G1 X94.192 Y129.914 E8.8301
G1 X94.047 Y129.166 E8.8616
G1 X94.018 Y128.932 E8.8713
G1 X93.989 Y128.427 E8.8922
G1 X93.986 Y128.326 E8.8964
G1 X93.986 Y89.647 E10.4929
G1 X93.989 Y89.547 E10.4970
G1 X94.013 Y89.125 E10.5145
G1 X94.055 Y88.832 E10.5267
G1 X94.232 Y88.058 E10.5595
G1 X94.363 Y87.686 E10.5757
G1 X94.729 Y86.928 E10.6105
G1 X94.938 Y86.596 E10.6267
G1 X95.428 Y85.981 E10.6591
G92 E0.0000
G1 E-0.8000 F1800
G1 X95.755 Y86.265 F7800
G1 E0.0000 F1800
G92 E0.0000
G1 X95.932 Y86.078 E0.0106 F1500
G1 X96.291 Y85.756 E0.0306
G1 X96.498 Y85.599 E0.0413
G1 X97.134 Y85.199 E0.0723
G1 X97.446 Y85.048 E0.0866
G1 X98.155 Y84.799 E0.1176
G1 X98.409 Y84.734 E0.1284
G1 X98.892 Y84.652 E0.1486
G1 X99.149 Y84.630 E0.1593
G1 X122.613 Y84.620 E1.1278
G1 X122.613 Y82.895 E1.1990
G1 X124.418 Y81.090 E1.3044
G1 X126.613 Y81.090 E1.3950
G1 X126.613 Y74.895 E1.6507
G1 X127.117 Y74.391 E1.6801
G1 X126.613 Y73.888 E1.7095
G1 X126.613 Y66.895 E1.9981
G1 X128.418 Y65.090 E2.1035
G1 X135.411 Y65.090 E2.3921
G1 X137.216 Y66.895 E2.4975
G1 X137.216 Y73.090 E2.7532
G1 X139.411 Y73.090 E2.8438
G1 X141.216 Y74.895 E2.9492
G1 X141.216 Y85.090 E3.3700
G1 X143.411 Y85.090 E3.4606
G1 X145.216 Y86.895 E3.5659
G1 X145.216 Y93.090 E3.8217
G1 X147.411 Y93.090 E3.9123
G1 X149.216 Y94.895 E4.0176
G1 X149.216 Y105.090 E4.4384
G1 X151.411 Y105.090 E4.5290
G1 X153.216 Y106.895 E4.6344
G1 X153.216 Y117.888 E5.0881
G1 X151.411 Y119.693 E5.1935
G1 X144.418 Y119.693 E5.4822
G1 X142.613 Y117.888 E5.5875
G1 X142.613 Y111.693 E5.8432
G1 X142.392 Y111.693 E5.8523
G1 X142.405 Y128.690 E6.5539
G1 X142.392 Y128.893 E6.5623
G1 X142.299 Y129.594 E6.5915
G1 X142.254 Y129.814 E6.6008
G1 X142.105 Y130.338 E6.6233
G1 X141.979 Y130.647 E6.6371
G1 X141.610 Y131.332 E6.6692
G1 X141.413 Y131.617 E6.6835
G1 X140.961 Y132.133 E6.7118
G1 X140.667 Y132.394 E6.7280
G1 X139.921 Y132.902 E6.7653
G1 X139.471 Y133.111 E6.7857
G1 X138.597 Y133.359 E6.8232
G1 X138.185 Y133.418 E6.8404
G1 X136.313 Y133.429 E6.9177
G1 X136.102 Y133.416 E6.9264
G1 X135.834 Y133.381 E6.9376
G1 X134.288 Y133.381 E7.0014
G1 X134.060 Y133.364 E7.0108
G1 X133.471 Y133.276 E7.0354
G1 X133.129 Y133.184 E7.0500
G1 X132.620 Y132.981 E7.0726
G1 X132.305 Y132.812 E7.0874
G1 X131.705 Y132.392 E7.1176
G1 X131.328 Y132.019 E7.1395
G1 X130.875 Y131.381 E7.1718
G1 X105.935 Y131.381 E8.2013
G1 X105.837 Y131.541 E8.2090
G1 X105.450 Y132.041 E8.2351
G1 X105.216 Y132.274 E8.2487
G1 X105.216 Y137.888 E8.4804
G1 X103.411 Y139.693 E8.5858
G1 X96.418 Y139.693 E8.8745
G1 X94.613 Y137.888 E8.9798
G1 X94.613 Y130.895 E9.2685
G1 X94.890 Y130.618 E9.2846
G1 X94.836 Y130.497 E9.2901
G1 X94.673 Y130.035 E9.3103
G1 X94.614 Y129.816 E9.3197
G1 X94.475 Y129.098 E9.3499
G1 X94.449 Y128.893 E9.3584
G1 X94.421 Y128.408 E9.3784
G1 X94.418 Y128.320 E9.3821
G1 X94.419 Y89.653 E10.9781
